icons/house-outline.svg

<svg xmlns="http://www.w3.org/2000/svg" width="24" height="24" viewBox="0 0 24 24">
  <path d="M12.570012,2.17826795 L12.6689647,2.25670585 L22.6689647,11.2567059 C23.0794748,11.6261649 23.1127532,12.2584547 22.7432941,12.6689647 C22.4022551,13.0478971 21.8372654,13.1054013 21.4294847,12.8214163 L21.3310353,12.7432941 L19.9999914,11.545 L20,19 C20,20.5976809 18.75108,21.9036609 17.1762728,21.9949073 L17,22 L15,22 C13.9456382,22 13.0818349,21.1841222 13.0054857,20.1492623 L13,20 L13,16 L11,16 L11,20 C11,21.0543618 10.1841222,21.9181651 9.14926234,21.9945143 L9,22 L7,22 C5.40231912,22 4.09633912,20.75108 4.00509269,19.1762728 L4,19 L3.9999914,11.544 L2.66896473,12.7432941 C2.2900324,13.0843332 1.72212793,13.0822114 1.34641068,12.7569898 L1.25670585,12.6689647 C0.915666759,12.2900324 0.917788553,11.7221279 1.24301021,11.3464107 L1.33103527,11.2567059 L11.3310353,2.25670585 C11.6796482,1.94295425 12.193808,1.91680829 12.570012,2.17826795 Z M11.9999914,4.345 L5.9999914,9.744 L6,19 C6,19.5128358 6.38604019,19.9355072 6.88337887,19.9932723 L7,20 L9,20 L9,16 C9,14.9456382 9.81587779,14.0818349 10.8507377,14.0054857 L11,14 L13,14 C14.0543618,14 14.9181651,14.8158778 14.9945143,15.8507377 L15,16 L15,20 L17,20 C17.5128358,20 17.9355072,19.6139598 17.9932723,19.1166211 L18,19 L17.9999914,9.745 L11.9999914,4.345 Z"/>
</svg>

<svg xmlns="http://www.w3.org/2000/svg" viewBox="0 0 24 24">
  <path d="m12.57 2.18.1.08 10 9a1 1 0 0 1-1.24 1.56l-.1-.08-1.33-1.2V19a3 3 0 0 1-2.82 3H15a2 2 0 0 1-2-1.85V16h-2v4a2 2 0 0 1-1.85 2H7a3 3 0 0 1-3-2.82v-7.64l-1.33 1.2a1 1 0 0 1-1.32.02l-.1-.1a1 1 0 0 1 0-1.31l.08-.1 10-9a1 1 0 0 1 1.24-.07zM12 4.34l-6 5.4V19a1 1 0 0 0 .88 1H9v-4a2 2 0 0 1 1.85-2H13a2 2 0 0 1 2 1.85V20h2a1 1 0 0 0 1-.88V9.74l-6-5.4z"/>
</svg>
